azure-icons/command-1023-Trend-Up.svg

<svg xmlns="http://www.w3.org/2000/svg" viewBox="0 0 16.1 10.8"><path d="M16.1 0v5.3h-1.3v-3l-6 6-2.7-2.7-5.2 5.2-.9-.9 6.1-6.2 2.7 2.7 5.1-5.1h-3.1V0z"/></svg>

<svg xmlns="http://www.w3.org/2000/svg" viewBox="0 0 16.1 10.8"><title>Asset 76</title><path d="M16.1,0V5.3H14.8v-3l-6,6L6.1,5.6.9,10.8,0,9.9,6.1,3.7,8.8,6.4l5.1-5.1H10.8V0Z"/></svg>
